dist/images/mu-logo-extra-small.svg

<svg id="76d7eec9-ab70-466b-aadf-6612172f0941" data-name="default" xmlns="http://www.w3.org/2000/svg" width="26" height="29" viewBox="0 0 26 29"><defs><style>.\32 fbf4507-fd9d-4c1c-908f-ab940655c725{fill:#fff;}.\34 4c35b61-f5ed-43e3-b7c2-8b16b62d298c{fill:#f1b82d;}</style></defs><title>mu-logo-extra-small</title><path d="M13,28.5C1.4,28.5.5,23.447,0.5,21.9V0.5H11.732L13,3.361,14.268,0.5H25.5V21.9C25.5,23.447,24.6,28.5,13,28.5Z"/><path class="2fbf4507-fd9d-4c1c-908f-ab940655c725" d="M25,1V21.9c0,1.393-.779,6.1-12,6.1S1,23.291,1,21.9V1H11.407L13,4.6,14.593,1H25m1-1H13.942l-0.264.595L13,2.127,12.321,0.595,12.057,0H0V21.9C0,23.564.937,29,13,29s13-5.436,13-7.1V0h0Z"/><path class="44c35b61-f5ed-43e3-b7c2-8b16b62d298c" d="M16.576,19.929V17.88c0-.415-1.067-0.738-1.576-1.014V15h7v1.854a1.531,1.531,0,0,0-1,1.014V19.7c-0.023,1.337.312,5.332-8,5.3-8.406-.031-7.977-3.965-8-5.3v-1.83a1.53,1.53,0,0,0-1-1.014V15h7v1.866c-0.51.276-1.576,0.6-1.576,1.014v2.05C9.447,20.251,9.353,22,13,22S16.552,20.251,16.576,19.929Z"/><path class="44c35b61-f5ed-43e3-b7c2-8b16b62d298c" d="M12.994,9.415L15.963,4H22V5.412A1.54,1.54,0,0,0,21,6.42v4.3a1.533,1.533,0,0,0,1,1V13H16V11.711a1.641,1.641,0,0,0,1.057-1V7.434L13.688,13H12.3L8.931,7.434v3.275a1.664,1.664,0,0,0,1.069,1V13H4V11.722a1.534,1.534,0,0,0,1-1V6.42A1.541,1.541,0,0,0,4,5.412V4h6.026l2.968,5.415"/></svg>

<?xml version="1.0" encoding="utf-8"?>
<!-- Generator: Adobe Illustrator 18.1.0, SVG Export Plug-In . SVG Version: 6.00 Build 0)  -->
<!DOCTYPE svg PUBLIC "-//W3C//DTD SVG 1.0//EN" "http://www.w3.org/TR/2001/REC-SVG-20010904/DTD/svg10.dtd">
<svg version="1.0" id="default" xmlns="http://www.w3.org/2000/svg" xmlns:xlink="http://www.w3.org/1999/xlink" x="0px" y="0px"
	 width="26px" height="29px" viewBox="0 0 26 29" enable-background="new 0 0 26 29" xml:space="preserve">
<g>
	<path d="M13,28.5c-11.6,0-12.5-5.1-12.5-6.6V0.5h11.2L13,3.4l1.3-2.9h11.2v21.4C25.5,23.4,24.6,28.5,13,28.5z"/>
	<path fill="#FFFFFF" d="M25,1v20.9c0,1.4-0.8,6.1-12,6.1C1.8,28,1,23.3,1,21.9V1h10.4L13,4.6L14.6,1H25 M26,0h-1H14.6h-0.7
		l-0.3,0.6L13,2.1l-0.7-1.5L12.1,0h-0.7H1H0v1v20.9C0,23.6,0.9,29,13,29s13-5.4,13-7.1V1V0L26,0z"/>
</g>
<path fill="#F1B82D" d="M16.6,19.9v-2c0-0.4-1.1-0.7-1.6-1V15h0.8H22v1.9c-0.5,0.3-1,0.6-1,1v1.8c0,1.3,0.3,5.3-8,5.3
	c-8.4,0-8-4-8-5.3v-1.8c0-0.4-0.5-0.7-1-1V15h7v0.4v1.4c-0.5,0.3-1.6,0.6-1.6,1v2c0,0.3-0.1,2.1,3.6,2.1S16.6,20.3,16.6,19.9z"/>
<path fill="#F1B82D" d="M13,9.4L16,4h6v1.4c-0.5,0.3-1,0.6-1,1v4.3c0,0.4,0.5,0.7,1,1V13h-6v-1.3c0.5-0.3,1.1-0.6,1.1-1V7.4L13.7,13
	h-1.4L8.9,7.4v3.3c0,0.4,0.6,0.7,1.1,1V13H4v-1.3c0.5-0.3,1-0.6,1-1V6.4c0-0.4-0.5-0.7-1-1V4h6L13,9.4"/>
<g>
</g>
<g>
</g>
<g>
</g>
<g>
</g>
<g>
</g>
<g>
</g>
<g>
</g>
<g>
</g>
<g>
</g>
<g>
</g>
<g>
</g>
<g>
</g>
<g>
</g>
<g>
</g>
<g>
</g>
</svg>
